X:1899
T:Vallmopolskan
C:Linus Fredin
R:Polska
M:3/4
L:1/16
K:Gdor
|:(DF)Ac B2AF G2D2 | (DF)Ac B2(AF) G4 | (DF)Ac B2AF G2D2 | (DE)FG (AB)AE C2EF |
(DF)Ac B2AF G2D2 | (DF)Ac B2(AF) G4 | (DF)Ac B2AF G2D2 |(DE)FG (A=B)cd e2E2|
f3(e d2)c2 BAGF | ([AF][F3B3]) [G8G,8] :|
|:(d^fab) g3=f edcB | (B2A2{BA}) [A4D4] [D4A,4] | (DE)FG (AB)AE C2EF | D4 (fg)fe (de)dc|
(B2A2{BA}) [A4D4] [D4A,4]|(DE)FG (AB)AE C2EF | D4 (ab)ag (fg)fe | (de)dc (Bc)BA (dc)BA |
(B2A2) (A3G) .F2.E2 |(DE)FG (A=B)cd e2E2| f3(e d2)c2 BAGF | ([AF][F3B3]) [G8G,8] :|
(:musicend:)
(:music:)
